X:700
T:Woodcock, The
R:jig
C:Hammy Hamilton
Z:Transcribed by Dave Marshall
M:6/8
K:G
|: dBG cGE | DB,D ~G3 | ~B3 dcB | dcB ABc |
dBG cGE | DB,D ~G3 | ~B3 ded | ABA G2d:|
dBG ecg | ~f3 g2d | ege dcB | dcB ABc |
dBG ecg | ~f3 g2d | ege dBG | ABA G2B |
dBG ecg | ~f3 g2g | ege dcB | dcB ABc |
dBG cGE | DB,D ~G3 | ~B3 ded | ABA G3 |
